X:1
T:Mali, 87.87 D
T:Mali, 87.87 D
T:J. L. Remsen, 1897
T:Public Domain Courtesy of the Cyber Hymnal™
C:J. L. Remsen, 1897
Z:Public Domain
Z:Courtesy of the Cyber Hymnal™
%%score 1 ( 2 3 )
L:1/8
Q:1/4=75
M:2/4
K:F
V:1 treble 
V:2 bass 
V:3 bass 
V:1
 [CF]>[CF] [EG][EG] | [FA][Ac] [FA][CF] | [DF]>[B,D] [A,C][CF] | [EG][FA] [EG]2 | %4
 [CF]>[CF] [EG][EG] | [FA][Ac] [FA][CF] | [DF]>[B,D] [A,C][FA] | [EG]>[CF] [CF]2 | %8
 [Fc]>[FA] [Fc][Fd] | [Fd]>[Fc] [Fc][FA] | [Fc]>[FA] [Fc][Fd] | [Fc]>[FA] [EG]2 | %12
 [Fc][Fc] [FA][CF] | [DG][DF] [DF][B,D] | [DF]>[B,D] [A,C][FA] | [EG]>[CF] [CF]2 |] %16
V:2
 [F,A,]>[F,A,] [C,C][C,C] | [F,C][F,C] [F,C][F,A,] | [B,,B,]>[B,,F,] F,[F,A,] | [C,C][C,C] [C,C]2 | %4
 [F,A,]>[F,A,] [C,C][C,C] | [F,C][F,C] [F,C][F,A,] | [B,,B,]>[B,,F,] F,[F,C] | %7
 [C,B,]>[F,A,] [F,A,]2 | [F,A,]>[F,C] [F,A,][F,B,] | [F,B,]>[F,A,] [F,A,][F,C] | %10
 [F,A,]>[F,C] [F,A,][F,B,] | [F,A,]>[F,C] C2 | [A,C][A,C] [F,C][F,A,] | %13
 [B,,B,][B,,B,] [B,,B,][B,,F,] | [B,,B,]>[B,,F,] F,[F,C] | [C,B,]>[F,A,] [F,A,]2 |] %16
V:3
 x4 | x4 | x2 F, x | x4 | x4 | x4 | x2 F, x | x4 | x4 | x4 | x4 | x2 (C,B,) | x4 | x4 | x2 F, x | %15
 x4 |] %16

